storage/app/icons/phosphoricons/thin/bag-simple-thin.svg

<svg xmlns="http://www.w3.org/2000/svg" fill="currentColor" viewBox="0 0 256 256"><path d="M216 68h-44v-4a44 44 0 0 0-88 0v4H40a12 12 0 0 0-12 12v120a12 12 0 0 0 12 12h176a12 12 0 0 0 12-12V80a12 12 0 0 0-12-12M92 64a36 36 0 0 1 72 0v4H92Zm128 136a4 4 0 0 1-4 4H40a4 4 0 0 1-4-4V80a4 4 0 0 1 4-4h176a4 4 0 0 1 4 4Z"/></svg>

<svg xmlns="http://www.w3.org/2000/svg" viewBox="0 0 256 256" fill="currentColor"><path d="M216,68H172V64a44,44,0,0,0-88,0v4H40A12,12,0,0,0,28,80V200a12,12,0,0,0,12,12H216a12,12,0,0,0,12-12V80A12,12,0,0,0,216,68ZM92,64a36,36,0,0,1,72,0v4H92ZM220,200a4,4,0,0,1-4,4H40a4,4,0,0,1-4-4V80a4,4,0,0,1,4-4H216a4,4,0,0,1,4,4Z"/></svg>
